Papirus/24x24/panel/workrave-indicator-quiet.svg

<?xml version="1.0" encoding="UTF-8" standalone="no"?>
<svg xmlns:dc="http://purl.org/dc/elements/1.1/" xmlns:cc="http://creativecommons.org/ns#" xmlns:rdf="http://www.w3.org/1999/02/22-rdf-syntax-ns#" xmlns:svg="http://www.w3.org/2000/svg" xmlns="http://www.w3.org/2000/svg" version="1.0" width="24" height="24" id="svg2817">
    <metadata id="metadata57">
        <rdf:RDF>
            <cc:Work rdf:about="">
                <dc:format>
                    image/svg+xml
                </dc:format>
                <dc:type rdf:resource="http://purl.org/dc/dcmitype/StillImage"/>
                <dc:title/>
            </cc:Work>
        </rdf:RDF>
    </metadata>
    <path id="path4350" d="m 12,4 a 4,4 0 0 0 -4,4 4,4 0 0 0 4,4 4,4 0 0 0 4,-4 4,4 0 0 0 -4,-4 z m -1,2 2,0 0,1 1,0 0,2 -1,0 0,1 -2,0 0,-1 -1,0 0,-2 1,0 0,-1 z m 1,8 C 3.9995555,14.0043 4,19.144531 4,19.144531 L 4,20 14.173828,20 15.708984,18.464844 13.585938,16.34375 15.505859,14.423828 C 14.551113,14.162524 13.404785,13.999323 12,14 Z M 16.414062,14.929688 15,16.34375 17.123047,18.464844 15,20.587891 16.414062,22 18.535156,19.878906 20.658203,22 l 1.412109,-1.412109 -2.121093,-2.123047 2.121093,-2.121094 -1.412109,-1.414062 -2.123047,2.123046 -2.121094,-2.123046 z" style="color:#000000;text-indent:0;text-decoration:none;text-decoration-line:none;text-transform:none;block-progression:tb;opacity:1;fill:#ffffff;fill-opacity:1"/>
    <g transform="translate(-39.548917,-8.213014)" id="g4146" style="fill:none;fill-opacity:1">
        <path d="m 30.565,21.238 1.414,1.414 -1.793,1.793 5.172,0 0,2 -5.172,0 1.793,1.793 -1.414,1.414 -4.207,-4.207 z" style="opacity:1;fill:none;fill-opacity:1;fill-rule:nonzero;stroke:none" id="path4148"/>
    </g>
</svg>

<?xml version="1.0" encoding="UTF-8" standalone="no"?>
<svg id="svg2817" xmlns:rdf="http://www.w3.org/1999/02/22-rdf-syntax-ns#" xmlns="http://www.w3.org/2000/svg" height="24" width="24" version="1.0" xmlns:cc="http://creativecommons.org/ns#" xmlns:dc="http://purl.org/dc/elements/1.1/">
 <metadata id="metadata57">
  <rdf:RDF>
   <cc:Work rdf:about="">
    <dc:format>image/svg+xml</dc:format>
    <dc:type rdf:resource="http://purl.org/dc/dcmitype/StillImage"/>
    <dc:title/>
   </cc:Work>
  </rdf:RDF>
 </metadata>
 <path id="path4350" style="color:#000000;block-progression:tb;text-decoration-line:none;text-transform:none;text-indent:0" d="m12 4a4 4 0 0 0 -4 4 4 4 0 0 0 4 4 4 4 0 0 0 4 -4 4 4 0 0 0 -4 -4zm-1 2h2v1h1v2h-1v1h-2v-1h-1v-2h1v-1zm1 8c-8.0004 0.004-8 5.145-8 5.145v0.855h10.174l1.535-1.535-2.123-2.121 1.92-1.92c-0.955-0.261-2.101-0.425-3.506-0.424zm4.414 0.93-1.414 1.414 2.123 2.121-2.123 2.123 1.414 1.412 2.121-2.121 2.123 2.121l1.4121-1.4121-2.1211-2.123 2.1211-2.1211-1.4121-1.4141-2.123 2.123-2.1211-2.123z" fill="#fff"/>
 <g id="g4146" fill="none" transform="translate(-39.549 -8.213)">
  <path id="path4148" fill="none" d="m30.565 21.238 1.414 1.414-1.793 1.793h5.172v2h-5.172l1.793 1.793-1.414 1.414-4.207-4.207z"/>
 </g>
</svg>
